client/src/img/down-arrow.svg

<svg width="491" height="491" fill="none" xmlns="http://www.w3.org/2000/svg"><g clip-path="url(#clip0)"><path d="M487.536 120.445c-4.16-4.16-10.923-4.16-15.083 0L245.339 347.581 18.203 120.467c-4.16-4.16-10.923-4.16-15.083 0s-4.16 10.923 0 15.083l234.667 234.667a10.716 10.716 0 007.552 3.115c2.731 0 5.461-1.045 7.531-3.136l234.667-234.667c4.159-4.161 4.159-10.924-.001-15.084z" fill="#fff"/></g><defs><clipPath id="clip0"><path fill="#fff" d="M0 0h490.656v490.656H0z"/></clipPath></defs></svg>

<svg width="491" height="491" viewBox="0 0 491 491" fill="none" xmlns="http://www.w3.org/2000/svg">
<g clip-path="url(#clip0)">
<path d="M487.536 120.445C483.376 116.285 476.613 116.285 472.453 120.445L245.339 347.581L18.203 120.467C14.043 116.307 7.28 116.307 3.12 120.467C-1.04 124.627 -1.04 131.39 3.12 135.55L237.787 370.217C239.878 372.286 242.608 373.332 245.339 373.332C248.07 373.332 250.8 372.287 252.87 370.196L487.537 135.529C491.696 131.368 491.696 124.605 487.536 120.445Z" fill="white"/>
</g>
<defs>
<clipPath id="clip0">
<rect width="490.656" height="490.656" fill="white"/>
</clipPath>
</defs>
</svg>
